fs/sub_grid_24_regular.svg

<svg viewBox="0 0 24 24" fill="none" xmlns="http://www.w3.org/2000/svg" height="1em" width="1em">
  <path d="M6.25 3C4.45507 3 3 4.45507 3 6.25V17.75C3 19.5449 4.45507 21 6.25 21H17.75C19.5449 21 21 19.5449 21 17.75V6.25C21 4.45507 19.5449 3 17.75 3H6.25ZM4.5 6.25C4.5 5.2835 5.2835 4.5 6.25 4.5H11.25V7H9.75C8.23122 7 7 8.23122 7 9.75V11.25H4.5V6.25ZM7 12.75V14.25C7 15.7688 8.23122 17 9.75 17H11.25V19.5H6.25C5.2835 19.5 4.5 18.7165 4.5 17.75V12.75H7ZM11.25 15.5H9.75C9.05964 15.5 8.5 14.9404 8.5 14.25V12.75H11.25V15.5ZM12.75 17H14.25C15.7688 17 17 15.7688 17 14.25V12.75H19.5V17.75C19.5 18.7165 18.7165 19.5 17.75 19.5H12.75V17ZM15.5 12.75V14.25C15.5 14.9404 14.9404 15.5 14.25 15.5H12.75V12.75H15.5ZM17 11.25V9.75C17 8.23122 15.7688 7 14.25 7H12.75V4.5H17.75C18.7165 4.5 19.5 5.2835 19.5 6.25V11.25H17ZM12.75 8.5H14.25C14.9404 8.5 15.5 9.05964 15.5 9.75V11.25H12.75V8.5ZM11.25 8.5V11.25H8.5V9.75C8.5 9.05964 9.05964 8.5 9.75 8.5H11.25Z" fill="#212121"/>
</svg>

<svg viewBox="0 0 24 24" fill="none" xmlns="http://www.w3.org/2000/svg" height="1em" width="1em">
  <path d="M6.25 3A3.25 3.25 0 0 0 3 6.25v11.5A3.25 3.25 0 0 0 6.25 21h11.5A3.25 3.25 0 0 0 21 17.75V6.25A3.25 3.25 0 0 0 17.75 3H6.25ZM4.5 6.25c0-.966.784-1.75 1.75-1.75h5V7h-1.5A2.75 2.75 0 0 0 7 9.75v1.5H4.5v-5Zm2.5 6.5v1.5A2.75 2.75 0 0 0 9.75 17h1.5v2.5h-5a1.75 1.75 0 0 1-1.75-1.75v-5H7Zm4.25 2.75h-1.5c-.69 0-1.25-.56-1.25-1.25v-1.5h2.75v2.75Zm1.5 1.5h1.5A2.75 2.75 0 0 0 17 14.25v-1.5h2.5v5a1.75 1.75 0 0 1-1.75 1.75h-5V17Zm2.75-4.25v1.5c0 .69-.56 1.25-1.25 1.25h-1.5v-2.75h2.75Zm1.5-1.5v-1.5A2.75 2.75 0 0 0 14.25 7h-1.5V4.5h5c.966 0 1.75.784 1.75 1.75v5H17ZM12.75 8.5h1.5c.69 0 1.25.56 1.25 1.25v1.5h-2.75V8.5Zm-1.5 0v2.75H8.5v-1.5c0-.69.56-1.25 1.25-1.25h1.5Z" fill="#212121"/>
</svg>
